X:3768
T:Danny Boy
C:Unknown
O:Ireland
R:Other
M:4/4
L:1/8
S:ABC'd by frog@star2.opsys.com
K:G
FGAB3AB | edBA GE3 | FGBd3ed | BGBA3FG |
AB3ABed | BAGE3FG | AB3cBAG | AG3defg-|
g2ff eded | BG3 defg-| g2 ff edBA-| A2dddb3 |
aage gdBG-| G2FGAB3 | cBAG AG z2 |]
